brandFactory_export/3.Masa/Documento_Archivo PSD_3Masa.svg

<?xml version="1.0" encoding="UTF-8"?>
<svg width="24px" height="24px" viewBox="0 0 24 24" version="1.1" xmlns="http://www.w3.org/2000/svg" xmlns:xlink="http://www.w3.org/1999/xlink">
    <title>3.Masa/Documento_Archivo PSD_3Masa</title>
    <g id="Symbols" stroke="none" stroke-width="1" fill="none" fill-rule="evenodd">
        <g id="3.Masa/Documento_Archivo-PSD_3Masa" fill="#5CB615" fill-rule="nonzero">
            <path d="M16.2117647,-2.66453526e-13 C16.4907563,-2.66453526e-13 16.7495798,0.104201681 16.9478992,0.295798319 L23.3042017,6.44705882 C23.4386555,6.58151261 23.5159664,6.74285714 23.5663866,6.91428571 C23.6033613,7.00504202 23.6235294,7.09915966 23.6235294,7.19663866 L23.6235294,21.9630252 C23.6235294,22.8638655 22.8504202,23.6235294 21.9327731,23.6235294 L7.31764706,23.6235294 C6.41680672,23.6235294 5.62689076,22.8470588 5.62689076,21.9630252 L5.66722689,18.6352941 L2.90756303,18.6352941 C1.30084034,18.6319328 0.00336134476,17.3310924 2.19149143e-10,15.7277311 L2.19149143e-10,10.8168067 C2.19149143e-10,9.21008403 1.30084034,7.9092437 2.90420168,7.90588235 L5.62352941,7.90588235 L5.62352941,1.6605042 C5.62352941,0.789915966 6.4302521,-2.66453526e-13 7.31428571,-2.66453526e-13 L16.2117647,-2.66453526e-13 Z M14.7193277,9.36134454 L2.90420168,9.36134454 C2.10420168,9.36134454 1.45546219,10.010084 1.45546219,10.8134454 L1.45546219,15.7277311 C1.45546219,16.5277311 2.10420168,17.1798319 2.90420168,17.1798319 L14.7193277,17.1798319 C15.5193277,17.1798319 16.1680672,16.5277311 16.1680672,15.7277311 L16.1680672,10.8134454 C16.1680672,10.0134454 15.5193277,9.36134454 14.7193277,9.36134454 Z M8.62857143,10.9882353 C9.05882353,10.9882353 9.52605042,11.0521008 9.86890756,11.1697479 L9.71428571,11.9226891 C9.3512605,11.8252101 8.96134454,11.7680672 8.6487395,11.7680672 C8.10420168,11.7680672 7.92941176,11.9630252 7.92941176,12.2420168 C7.92941176,13.112605 10.194958,12.5142857 10.194958,14.2487395 C10.194958,14.6453782 10.0571429,14.9613445 9.82521008,15.1831933 C9.51260504,15.4756303 9.09243697,15.6067227 8.45378151,15.6067227 C7.88907563,15.6033613 7.42857143,15.5327731 6.98151261,15.3747899 L7.13613445,14.6016807 C7.52605042,14.7394958 8.03697479,14.8235294 8.36302521,14.8235294 C8.96134454,14.8235294 9.24033613,14.6689076 9.24033613,14.2588235 C9.24033613,13.4285714 6.97478992,14.0302521 6.97478992,12.2857143 C6.97478992,11.3848739 7.68403361,10.9882353 8.62857143,10.9882353 Z M4.6487395,11.0722689 C5.34453782,11.0722689 5.78487395,11.1697479 6.07058824,11.4352941 C6.3092437,11.6571429 6.42689076,12 6.42689076,12.4739496 C6.42689076,12.9478992 6.31596639,13.3042017 6.09411765,13.5529412 C5.83529412,13.8453782 5.43193277,13.9831933 4.84705882,13.9831933 L4.13445378,13.9831933 L4.13445378,15.5159664 L3.12268908,15.5159664 L3.12268908,11.0722689 L4.6487395,11.0722689 Z M12.3428571,11.0722689 C13.1865546,11.0722689 13.7445378,11.2033613 14.1142857,11.5731092 C14.4705882,11.9226891 14.6521008,12.4739496 14.6521008,13.2739496 C14.6521008,14.0806723 14.4773109,14.6386555 14.1142857,15.0151261 C13.7815126,15.3512605 13.2705882,15.5159664 12.4773109,15.5159664 L10.9714286,15.5159664 L10.9714286,11.0722689 L12.3428571,11.0722689 Z M12.2991597,11.8117647 L11.9865546,11.8117647 L11.9865546,14.7731092 L12.4168067,14.7731092 C12.8705882,14.7731092 13.1966387,14.6352941 13.3714286,14.3764706 C13.5462185,14.1176471 13.6067227,13.8184874 13.6067227,13.2739496 C13.6067227,12.6386555 13.5092437,12.3394958 13.2941176,12.1042017 C13.092437,11.8890756 12.7932773,11.8117647 12.2991597,11.8117647 Z M4.61176471,11.8084034 L4.13445378,11.8084034 L4.13445378,13.2235294 L4.63529412,13.2235294 L4.63529412,13.2201681 C4.96134454,13.2201681 5.09579832,13.1731092 5.22689076,13.0521008 C5.34453782,12.9344538 5.40168067,12.7462185 5.40168067,12.487395 C5.40168067,12.2487395 5.3512605,12.0705882 5.23361345,11.9630252 C5.1092437,11.8521008 4.9210084,11.8084034 4.61176471,11.8084034 Z M16.6151261,2.00336134 L16.6151261,4.1210084 C16.6151261,4.91092437 16.8739496,5.57647059 17.3647059,6.05042017 C17.8621849,6.52773109 18.5613445,6.78319328 19.3915966,6.78319328 L21.5563025,6.78319328 L16.6151261,2.00336134 Z" id="Documento_Archivo-PSD_3Masa"></path>
        </g>
    </g>
</svg>

<svg width="24" height="24" viewBox="0 0 24 24" xmlns="http://www.w3.org/2000/svg"><path d="M16.212 0c.279 0 .538.104.736.296l6.356 6.151c.135.135.212.296.262.467.037.091.058.185.058.283v14.766c0 .9-.774 1.66-1.691 1.66H7.318c-.901 0-1.691-.776-1.691-1.66l.04-3.328h-2.76A2.913 2.913 0 010 15.728v-4.911a2.91 2.91 0 012.904-2.911h2.72V1.66C5.624.79 6.43 0 7.314 0h8.898zm-1.493 9.361H2.904c-.8 0-1.449.65-1.449 1.452v4.915c0 .8.65 1.452 1.45 1.452h11.814c.8 0 1.45-.652 1.45-1.452v-4.915c0-.8-.65-1.452-1.45-1.452zm-6.09 1.627c.43 0 .897.064 1.24.182l-.155.753a4.34 4.34 0 00-1.065-.155c-.545 0-.72.195-.72.474 0 .87 2.266.272 2.266 2.007 0 .396-.138.712-.37.934-.312.293-.733.424-1.371.424-.565-.004-1.025-.074-1.472-.232l.154-.773c.39.137.901.222 1.227.222.598 0 .877-.155.877-.565 0-.83-2.265-.229-2.265-1.973 0-.901.709-1.298 1.654-1.298zm-3.98.084c.696 0 1.136.098 1.422.363.238.222.356.565.356 1.039s-.111.83-.333 1.079c-.259.292-.662.43-1.247.43h-.713v1.533H3.123v-4.444h1.526zm7.694 0c.844 0 1.402.131 1.771.501.357.35.538.9.538 1.7 0 .808-.175 1.366-.538 1.742-.332.336-.843.501-1.637.501h-1.506v-4.444h1.372zm-.044.74h-.312v2.961h.43c.454 0 .78-.138.954-.397.175-.258.236-.558.236-1.102 0-.635-.098-.935-.313-1.17-.202-.215-.5-.292-.995-.292zm-7.687-.004h-.478v1.416h.501v-.004c.326 0 .46-.047.592-.168.118-.118.175-.306.175-.565 0-.238-.05-.416-.168-.524-.125-.11-.313-.155-.622-.155zm12.003-9.805v2.118c0 .79.259 1.455.75 1.93.497.477 1.196.732 2.027.732h2.164l-4.94-4.78z" fill="#5CB615" fill-rule="nonzero"/></svg>
